symbols/web/euro_symbol/materialsymbolsoutlined/euro_symbol_wght200_20px.svg

<svg xmlns="http://www.w3.org/2000/svg" height="20" width="20"><path d="M12.688 16.917q-2.167 0-3.99-1.24-1.823-1.239-2.594-3.573H3.146v-.916h2.729q-.063-.25-.094-.594T5.75 10q0-.25.031-.573.031-.323.094-.615H3.146v-.916h2.958q.688-2.146 2.5-3.479 1.813-1.334 4.084-1.334 1.166 0 2.177.355 1.01.354 1.989 1.083l-.729.708q-.813-.562-1.687-.833-.876-.271-1.75-.271-1.98 0-3.428 1.083-1.448 1.084-2.031 2.688h5.083v.916H6.938q-.084.292-.105.615-.021.323-.021.573 0 .25.032.604.031.354.094.584h5.374v.916H7.229q.688 1.875 2.198 2.823 1.511.948 3.261.948.874 0 1.791-.281.917-.282 1.646-.844l.729.729q-1 .729-1.989 1.083-.99.355-2.177.355Z"/></svg>

<svg xmlns="http://www.w3.org/2000/svg" height="20" width="20"><path d="M12.688 16.917Q10.521 16.917 8.698 15.677Q6.875 14.438 6.104 12.104H3.146V11.188H5.875Q5.812 10.938 5.781 10.594Q5.75 10.25 5.75 10Q5.75 9.75 5.781 9.427Q5.812 9.104 5.875 8.812H3.146V7.896H6.104Q6.792 5.75 8.604 4.417Q10.417 3.083 12.688 3.083Q13.854 3.083 14.865 3.438Q15.875 3.792 16.854 4.521L16.125 5.229Q15.312 4.667 14.438 4.396Q13.562 4.125 12.688 4.125Q10.708 4.125 9.26 5.208Q7.812 6.292 7.229 7.896H12.312V8.812H6.938Q6.854 9.104 6.833 9.427Q6.812 9.75 6.812 10Q6.812 10.25 6.844 10.604Q6.875 10.958 6.938 11.188H12.312V12.104H7.229Q7.917 13.979 9.427 14.927Q10.938 15.875 12.688 15.875Q13.562 15.875 14.479 15.594Q15.396 15.312 16.125 14.75L16.854 15.479Q15.854 16.208 14.865 16.562Q13.875 16.917 12.688 16.917Z"/></svg>
